assets/svg/icon-ui-redpoint-expand-blue.svg

<?xml version="1.0" encoding="UTF-8" standalone="no"?>
<svg width="32px" height="32px" viewBox="0 0 32 32" version="1.1" xmlns="http://www.w3.org/2000/svg" xmlns:xlink="http://www.w3.org/1999/xlink">
    <!-- Generator: Sketch 3.8.3 (29802) - http://www.bohemiancoding.com/sketch -->
    <title>blue/icon-ui-redpoint-expand-blue</title>
    <desc>Created with Sketch.</desc>
    <defs></defs>
    <g id="blue,-base" stroke="none" stroke-width="1" fill="none" fill-rule="evenodd">
        <g id="icons,-utility-(blue)" transform="translate(-294.000000, -501.000000)" fill="#1055FF">
            <g id="blue/icon-ui-redpoint-expand-blue" transform="translate(294.000000, 501.000000)">
                <g id="`">
                    <g id="PaaS">
                        <g id="connectors_v1.3_2015-11-15_Kris">
                            <g id="Steps">
                                <path d="M8.946196,12.3408281 C9.335335,12.7325267 9.964496,12.7363591 10.355124,12.3457306 L12.345731,10.3551241 C12.734722,9.9661331 12.730757,9.3314899 12.345464,8.9461962 L7.815709,4.4164411 C7.42657,4.0273027 7.427581,3.395374 7.818017,3.0049374 L10.116048,0.7069064 C10.506462,0.3164928 10.371685,0 9.824157,0 L0.998798,0 C0.447177,0 0,0.4512697 0,0.9987981 L0,9.8241567 C0,10.3757777 0.31647,10.5031539 0.698169,10.1174363 L3.013674,7.7775576 C3.399263,7.3879105 4.031147,7.3934435 4.416441,7.781272 L8.946196,12.3408281 L8.946196,12.3408281 Z M28.995063,24.1819825 C28.604649,24.5723961 27.968853,24.5695851 27.583559,24.1842915 L23.053804,19.6545364 C22.664665,19.265398 22.035504,19.2636409 21.644876,19.6542694 L19.654269,21.6448759 C19.265278,22.0338669 19.269243,22.6664094 19.654536,23.0491682 L24.184291,27.5491224 C24.57343,27.9357006 24.572419,28.565554 24.181983,28.9559906 L21.883952,31.2540216 C21.493538,31.6444352 21.628315,31.960928 22.175843,31.960928 L31.001202,31.960928 C31.552823,31.960928 32,31.5112874 32,30.9657357 L32,22.1722375 C32,21.622608 31.68353,21.4935149 31.293094,21.8839515 L28.995063,24.1819825 L28.995063,24.1819825 Z M21.644876,12.3457306 C22.033867,12.7347216 22.66851,12.7307573 23.053804,12.3454636 L27.583559,7.8157085 C27.972697,7.4265701 28.601295,7.4275808 28.996304,7.8267919 L31.252781,10.107274 C31.64388,10.5025336 31.960928,10.3716851 31.960928,9.8241567 L31.960928,0.9987981 C31.960928,0.4471771 31.511287,0 30.965736,0 L22.172237,0 C21.622608,0 21.493515,0.3164697 21.883952,0.7069064 L24.181983,3.0049374 C24.572396,3.395351 24.569585,4.0311475 24.184291,4.4164411 L19.654536,8.9461962 C19.265398,9.3353346 19.263641,9.9644956 19.654269,10.3551241 L21.644876,12.3457306 L21.644876,12.3457306 Z M10.355124,19.6542694 C9.966133,19.2652784 9.33149,19.2692427 8.946196,19.6545364 L4.416441,24.1842915 C4.027303,24.5734299 3.395374,24.5690879 3.013674,24.1833703 L0.698169,21.8434917 C0.312581,21.4538446 0,21.5892428 0,22.1367712 L0,30.9621299 C0,31.5137508 0.45127,31.9625571 0.998798,31.9645337 L9.824157,31.9963942 C10.375778,31.9983856 10.506485,31.6835303 10.116048,31.2930936 L7.818017,28.9950626 C7.427604,28.604649 7.430415,27.9688525 7.815709,27.5835589 L12.345464,23.0538038 C12.734602,22.6646654 12.736359,22.0355044 12.345731,21.6448759 L10.355124,19.6542694 L10.355124,19.6542694 Z" id="`"></path>
                            </g>
                        </g>
                    </g>
                </g>
            </g>
        </g>
    </g>
</svg>

<svg width="32" height="32" viewBox="0 0 32 32" xmlns="http://www.w3.org/2000/svg"><title>blue/icon-ui-redpoint-expand-blue</title><path d="M8.946 12.34a.992.992 0 0 0 1.41.006l1.99-1.99a1 1 0 0 0 0-1.41l-4.53-4.53a.998.998 0 0 1 .002-1.411L10.116.707c.39-.39.256-.707-.292-.707H1C.447 0 0 .451 0 .999v8.825c0 .552.316.68.698.293l2.316-2.34a.99.99 0 0 1 1.402.004l4.53 4.56zm20.05 11.842c-.391.39-1.027.388-1.412.002l-4.53-4.53a.995.995 0 0 0-1.41 0l-1.99 1.99a.994.994 0 0 0 0 1.405l4.53 4.5a.992.992 0 0 1-.002 1.407l-2.298 2.298c-.39.39-.256.707.292.707H31a1 1 0 0 0 .999-.995v-8.794c0-.55-.316-.678-.707-.288l-2.298 2.298zm-7.351-11.836a1 1 0 0 0 1.409 0l4.53-4.53a.992.992 0 0 1 1.412.01l2.257 2.281c.39.396.708.265.708-.283V1A1 1 0 0 0 30.966 0h-8.794c-.55 0-.678.316-.288.707l2.298 2.298c.39.39.388 1.026.002 1.411l-4.53 4.53a.995.995 0 0 0 0 1.41l1.99 1.99zm-11.29 7.308a1 1 0 0 0-1.409 0l-4.53 4.53a.992.992 0 0 1-1.402 0l-2.316-2.34c-.385-.39-.698-.255-.698.293v8.825c0 .552.451 1 .999 1.003l8.825.031c.552.002.682-.312.292-.703l-2.298-2.298a1.002 1.002 0 0 1-.002-1.411l4.53-4.53a.995.995 0 0 0 0-1.41l-1.99-1.99z" fill="#1055FF" fill-rule="evenodd"/></svg>
